src/basic/600/u2192-right.svg

<svg width="24" height="24" viewBox="0 0 24 24" fill="none" xmlns="http://www.w3.org/2000/svg">
<path fill-rule="evenodd" clip-rule="evenodd" d="M21.2906,13.0023h-21.2906v-1h21.2953l-7.1488,-7.14874l0.7071,-0.70711l8,7.99995l0.3535,0.3536l-0.3535,0.3535l-8.0001,8.0001l-0.7071,-0.7071z" fill="black"/>
</svg>

<svg width="24" height="24" viewBox="0 0 24 24" fill="none" xmlns="http://www.w3.org/2000/svg">
<path fill-rule="evenodd" clip-rule="evenodd" d="M21.2906 13.0023H0V12.0023H21.2953L14.1465 4.85356L14.8536 4.14645L22.8536 12.1464L23.2071 12.5L22.8536 12.8535L14.8535 20.8536L14.1464 20.1465L21.2906 13.0023Z" fill="black"/>
</svg>
